X: 08025
T: DANCING WITH FRED
T: (FRED'S SHUFFLE)
C: Bob McQuillen 9 Jan 91
B: Bob's Note Book 8 #25
%R: reel
Z: 2021 John Chambers <jc:trillian.mit.edu>
M: C
L: 1/8
Q: "Note: Play this one FAST!!"
K: G
GE \
| D2GB AGBA | GBAG E2GE | D2BA GBd2 | e6 ge |\
| d2ed BGBA | GBAG E2GE | D2GB AGE2 | D6 :|
|: Bd \
| e2ed Bdge | dedB d2Bd | e2ed BAG2 | E6 GA |\
| B2dB AGBA | GBdg e2ge | d2ed BGA2 | G6 :|
%%begintext align
%% I hope you
%% all get to know Fred Armstrong Park, that
%% wonderful caller from Swannanoa, Georgia -
%% I still remember the wonderful night that Fred
%% made an enexpected appearance at our little dance
%% in Dublin years ago - what a joy it was, and always is,
%% to see you, Fred!
%%endtext

%%sep 1 1 500

%%sep 1 1 500

